src/22x22/places/folder-gruvbox-mix-aqua-wine.svg

<?xml version="1.0" encoding="UTF-8"?>
<svg width="22" height="22" version="1" xmlns="http://www.w3.org/2000/svg">
 <rect x="1" y="8.5" width="20" height="12" rx="1" ry="1" opacity=".2"/>
 <path d="m1 16c0 0.554 0.446 1 1 1h18c0.554 0 1-0.446 1-1v-11c0-0.554-0.446-1-1-1h-9c-1.5 0-2-2-3.5-2h-5.5c-0.554 0-1 0.446-1 1" fill="#477a5b"/>
 <rect x="1" y="7.5" width="20" height="12" rx="1" ry="1" opacity=".2"/>
 <rect x="3" y="6" width="16" height="8" rx="1" ry="1" fill="#DCE0BB"/>
 <rect x="1" y="8" width="20" height="12" rx="1" ry="1" fill="#8bba7f"/>
 <path d="m2 2c-0.554 0-1 0.446-1 1v0.5c0-0.554 0.446-1 1-1h5.5c1.5 0 2 2 3.5 2h9c0.554 0 1 0.446 1 1v-0.5c0-0.554-0.446-1-1-1h-9c-1.5 0-2-2-3.5-2z" fill="#DCE0BB" opacity=".1"/>
 <path d="m9.5 11s-0.5 0.5-0.5 1.5c0 1.2094 0.85892 2.2175 2 2.4492v2.0508h-1v1h3v-1h-1v-2.0508c1.1411-0.23167 2-1.2398 2-2.4492 0-1-0.5-1.5-0.5-1.5z" fill="#39433D"/>
</svg>

<svg xmlns="http://www.w3.org/2000/svg" width="22" height="22" version="1">
 <rect style="opacity:0.2" width="20" height="12" x="1" y="8.5" rx="1" ry="1"/>
 <path style="fill:#477a5b" d="m 1,16 c 0,0.554 0.446,1 1,1 h 18 c 0.554,0 1,-0.446 1,-1 V 5 C 21,4.446 20.554,4 20,4 H 11 C 9.5,4 9,2 7.5,2 H 2 C 1.446,2 1,2.446 1,3"/>
 <rect style="opacity:0.2" width="20" height="12" x="1" y="7.5" rx="1" ry="1"/>
 <rect style="fill:#DCE0BB" width="16" height="8" x="3" y="6" rx="1" ry="1"/>
 <rect style="fill:#8bba7f" width="20" height="12" x="1" y="8" rx="1" ry="1"/>
 <path style="opacity:0.1;fill:#DCE0BB" d="M 2,2 C 1.446,2 1,2.446 1,3 v 0.5 c 0,-0.554 0.446,-1 1,-1 h 5.5 c 1.5,0 2,2 3.5,2 h 9 c 0.554,0 1,0.446 1,1 V 5 C 21,4.446 20.554,4 20,4 H 11 C 9.5,4 9,2 7.5,2 Z"/>
 <path style="fill:#39433D" d="m 9.5,11 c 0,0 -0.5,0.5 -0.5,1.5 0,1.209447 0.858924,2.217549 2,2.449219 V 17 h -1 v 1 h 3 V 17 H 12 V 14.949219 C 13.141076,14.717549 14,13.709447 14,12.5 14,11.5 13.5,11 13.5,11 Z"/>
</svg>
